X:1
T:[ID 2-22a]
T:[ID 2-22a]
T:Bezeichnung standardisiert: Menuett Menuet ex F.#
T:Urheber unbekannt Datum in der hier transkribierten schriftlichen Quelle: 1767
C:Urheber unbekannt
C:Datum in der hier transkribierten schriftlichen Quelle: 1767
L:1/8
M:3/4
K:F
V:1 treble 
V:1
"^vgl. II, 50a + Sec" c4 (3def | c2 B2 A2 | CG F2 E2 | F4 G2 | AFcAGF | Gc=Bd c2 | (3def e2 d2 | %7
 c6 :: G4 (3GAB | AG F2 c2 | d2 bagf | f2 e2 (3cde | f2 F2 (3cde | f2 F2 c2 | dfcABG | F6 :| %16

